svg/color/jpg.svg

<?xml version="1.0" encoding="UTF-8" ?>
<!DOCTYPE svg PUBLIC "-//W3C//DTD SVG 1.1//EN" "http://www.w3.org/Graphics/SVG/1.1/DTD/svg11.dtd">
<svg width="250pt" height="250pt" viewBox="0 0 250 250" version="1.1" xmlns="http://www.w3.org/2000/svg">
<g id="#fdfdfdff">
<path fill="#fdfdfd" opacity="1.00" d=" M 0.00 0.00 L 250.00 0.00 L 250.00 250.00 L 0.00 250.00 L 0.00 0.00 M 37.91 35.89 C 17.17 55.88 3.55 83.35 0.94 112.10 C 1.10 120.72 1.06 129.35 0.92 137.98 C 2.64 157.92 9.95 177.22 20.93 193.89 C 25.82 201.22 31.46 208.06 37.85 214.13 C 55.27 231.28 77.98 242.99 102.04 247.34 C 139.54 254.38 179.95 242.90 208.00 216.99 C 216.17 209.58 223.34 201.09 229.26 191.78 C 250.82 158.48 254.69 114.64 239.46 78.03 C 228.54 51.11 207.79 28.34 182.03 14.93 C 165.69 6.37 147.42 1.44 128.96 0.93 C 122.96 -0.11 116.98 1.33 110.97 1.50 C 83.69 4.37 57.50 16.67 37.91 35.89 Z" />
<path fill="#fdfdfd" opacity="1.00" d=" M 72.76 72.75 C 84.67 62.89 99.53 56.55 114.95 55.08 C 134.52 52.92 154.78 58.63 170.45 70.53 C 182.00 79.18 191.04 91.09 196.36 104.49 C 203.36 122.10 203.66 142.28 197.26 160.11 C 180.47 143.51 163.86 126.72 146.99 110.19 C 146.07 109.29 145.13 108.42 144.21 107.53 C 129.46 122.43 114.57 137.18 99.81 152.07 C 94.16 146.29 88.55 140.46 82.78 134.80 C 82.56 134.44 82.10 133.74 81.87 133.39 C 70.98 143.25 61.10 154.21 50.46 164.35 C 44.68 151.09 43.00 136.21 45.01 121.93 C 47.75 102.85 57.88 84.98 72.76 72.75 Z" />
</g>
<g id="#3c186bff">
<path fill="#3c186b" opacity="1.00" d=" M 37.91 35.89 C 57.50 16.67 83.69 4.37 110.97 1.50 C 116.98 1.33 122.96 -0.11 128.96 0.93 C 147.42 1.44 165.69 6.37 182.03 14.93 C 207.79 28.34 228.54 51.11 239.46 78.03 C 254.69 114.64 250.82 158.48 229.26 191.78 C 218.39 181.43 208.00 170.59 197.26 160.11 C 203.66 142.28 203.36 122.10 196.36 104.49 C 191.04 91.09 182.00 79.18 170.45 70.53 C 154.78 58.63 134.52 52.92 114.95 55.08 C 99.53 56.55 84.67 62.89 72.76 72.75 C 57.88 84.98 47.75 102.85 45.01 121.93 C 43.00 136.21 44.68 151.09 50.46 164.35 C 40.54 174.12 31.16 184.45 20.93 193.89 C 9.95 177.22 2.64 157.92 0.92 137.98 C 1.06 129.35 1.10 120.72 0.94 112.10 C 3.55 83.35 17.17 55.88 37.91 35.89 Z" />
<path fill="#3c186b" opacity="1.00" d=" M 82.78 134.80 C 88.55 140.46 94.16 146.29 99.81 152.07 C 98.24 153.63 96.65 155.19 95.07 156.75 C 90.79 149.55 86.28 142.42 82.78 134.80 Z" />
</g>
<g id="#08f5e4ff">
<path fill="#08f5e4" opacity="1.00" d=" M 99.81 152.07 C 114.57 137.18 129.46 122.43 144.21 107.53 C 145.13 108.42 146.07 109.29 146.99 110.19 C 147.25 113.56 149.45 116.19 151.03 119.02 C 170.03 151.67 188.84 184.43 208.00 216.99 C 179.95 242.90 139.54 254.38 102.04 247.34 C 77.98 242.99 55.27 231.28 37.85 214.13 C 56.90 194.97 76.01 175.88 95.07 156.75 C 96.65 155.19 98.24 153.63 99.81 152.07 Z" />
</g>
<g id="#03aba0ff">
<path fill="#03aba0" opacity="1.00" d=" M 146.99 110.19 C 163.86 126.72 180.47 143.51 197.26 160.11 C 208.00 170.59 218.39 181.43 229.26 191.78 C 223.34 201.09 216.17 209.58 208.00 216.99 C 188.84 184.43 170.03 151.67 151.03 119.02 C 149.45 116.19 147.25 113.56 146.99 110.19 Z" />
</g>
<g id="#8050e4ff">
<path fill="#8050e4" opacity="1.00" d=" M 50.46 164.35 C 61.10 154.21 70.98 143.25 81.87 133.39 C 82.10 133.74 82.56 134.44 82.78 134.80 C 86.28 142.42 90.79 149.55 95.07 156.75 C 76.01 175.88 56.90 194.97 37.85 214.13 C 31.46 208.06 25.82 201.22 20.93 193.89 C 31.16 184.45 40.54 174.12 50.46 164.35 Z" />
</g>
</svg>

<?xml version="1.0" encoding="utf-8"?>
<!-- Generator: Adobe Illustrator 26.0.3, SVG Export Plug-In . SVG Version: 6.00 Build 0)  -->
<svg version="1.1" id="Layer_1" xmlns="http://www.w3.org/2000/svg" xmlns:xlink="http://www.w3.org/1999/xlink" x="0px" y="0px"
	 viewBox="0 0 250 250" style="enable-background:new 0 0 250 250;" xml:space="preserve">
<style type="text/css">
	.st0{fill:#FDFDFD;}
	.st1{fill:#3C186B;}
	.st2{fill:#08F5E4;}
	.st3{fill:#03ABA0;}
	.st4{fill:#8050E4;}
</style>
<g id="_x23_fdfdfdff">
	<path class="st0" d="M72.8,72.8c11.9-9.9,26.8-16.2,42.2-17.7c19.6-2.2,39.8,3.5,55.5,15.4c11.6,8.7,20.6,20.6,25.9,34
		c7,17.6,7.3,37.8,0.9,55.6c-16.8-16.6-33.4-33.4-50.3-49.9c-0.9-0.9-1.9-1.8-2.8-2.7c-14.8,14.9-29.6,29.6-44.4,44.5
		c-5.6-5.8-11.3-11.6-17-17.3c-0.2-0.4-0.7-1.1-0.9-1.4c-10.9,9.9-20.8,20.8-31.4,31c-5.8-13.3-7.5-28.1-5.5-42.4
		C47.8,102.8,57.9,85,72.8,72.8z"/>
</g>
<g id="_x23_3c186bff">
	<path class="st1" d="M37.9,35.9C57.5,16.7,83.7,4.4,111,1.5c6-0.2,12-1.6,18-0.6c18.5,0.5,36.7,5.4,53.1,14
		c25.8,13.4,46.5,36.2,57.4,63.1c15.2,36.6,11.4,80.4-10.2,113.8c-10.9-10.4-21.3-21.2-32-31.7c6.4-17.8,6.1-38-0.9-55.6
		c-5.3-13.4-14.4-25.3-25.9-34c-15.7-11.9-35.9-17.6-55.5-15.4c-15.4,1.5-30.3,7.8-42.2,17.7C57.9,85,47.8,102.8,45,121.9
		c-2,14.3-0.3,29.2,5.5,42.4c-9.9,9.8-19.3,20.1-29.5,29.5c-11-16.7-18.3-36-20-55.9c0.1-8.6,0.2-17.3,0-25.9
		C3.5,83.3,17.2,55.9,37.9,35.9z"/>
	<path class="st1" d="M82.8,134.8c5.8,5.7,11.4,11.5,17,17.3c-1.6,1.6-3.2,3.1-4.7,4.7C90.8,149.6,86.3,142.4,82.8,134.8z"/>
</g>
<g id="_x23_08f5e4ff">
	<path class="st2" d="M99.8,152.1c14.8-14.9,29.7-29.6,44.4-44.5c0.9,0.9,1.9,1.8,2.8,2.7c0.3,3.4,2.5,6,4,8.8
		c19,32.7,37.8,65.4,57,98c-28.1,25.9-68.5,37.4-106,30.3C78,243,55.3,231.3,37.8,214.1C56.9,195,76,175.9,95.1,156.8
		C96.7,155.2,98.2,153.6,99.8,152.1z"/>
</g>
<g id="_x23_03aba0ff">
	<path class="st3" d="M147,110.2c16.9,16.5,33.5,33.3,50.3,49.9c10.7,10.5,21.1,21.3,32,31.7c-5.9,9.3-13.1,17.8-21.3,25.2
		c-19.2-32.6-38-65.3-57-98C149.4,116.2,147.2,113.6,147,110.2z"/>
</g>
<g id="_x23_8050e4ff">
	<path class="st4" d="M50.5,164.4c10.6-10.1,20.5-21.1,31.4-31c0.2,0.4,0.7,1.1,0.9,1.4c3.5,7.6,8,14.8,12.3,21.9
		C76,175.9,56.9,195,37.8,214.1c-6.4-6.1-12-12.9-16.9-20.2C31.2,184.4,40.5,174.1,50.5,164.4z"/>
</g>
</svg>
